packages/core/src/svgs/tokens/branded/SLG.svg

<svg width="24" height="24" viewBox="0 0 24 24" fill="none" xmlns="http://www.w3.org/2000/svg">
<path d="M2.58838 17.806L5.52951 12.3355L12.0588 15.206L18.4705 12.3355L21.4117 17.806L12.0588 22L2.58838 17.806Z" fill="url(#paint0_linear_364_7321)"/>
<path fill-rule="evenodd" clip-rule="evenodd" d="M11.9889 15.5938C9.8655 14.5174 5.60086 12.3585 5.53027 12.3351L11.9889 9.12332L18.4713 12.3351L11.9889 15.5938ZM11.9889 14.5761C10.5361 13.8409 7.6126 12.3585 7.55965 12.341L11.9889 10.1409L16.4418 12.3469L11.9889 14.582V14.5761ZM9.94195 12.8821L12.0007 13.7644L14.0595 12.8762L12.0007 11.9997L9.94195 12.8762V12.8821Z" fill="url(#paint1_linear_364_7321)"/>
<path d="M11.9998 11.4116L7.29395 9.34108L11.9998 2V11.4116Z" fill="url(#paint2_linear_364_7321)"/>
<path d="M12.0002 11.4116L16.7061 9.34108L12.0002 2V11.4116Z" fill="url(#paint3_linear_364_7321)"/>
<defs>
<linearGradient id="paint0_linear_364_7321" x1="11.8118" y1="21.206" x2="11.8118" y2="13.9061" gradientUnits="userSpaceOnUse">
<stop offset="0.59" stop-color="#A9CFD8"/>
<stop offset="1" stop-color="#CFE6EE"/>
</linearGradient>
<linearGradient id="paint1_linear_364_7321" x1="12.0007" y1="9.12332" x2="12.0007" y2="15.5938" gradientUnits="userSpaceOnUse">
<stop offset="0.57" stop-color="#D7FDFF"/>
<stop offset="1" stop-color="#DAFBFF"/>
</linearGradient>
<linearGradient id="paint2_linear_364_7321" x1="8.21746" y1="9.77047" x2="11.5821" y2="3.57646" gradientUnits="userSpaceOnUse">
<stop offset="0.46" stop-color="#70B8C7"/>
<stop offset="1" stop-color="#D8F3FC"/>
</linearGradient>
<linearGradient id="paint3_linear_364_7321" x1="15.7825" y1="9.77047" x2="12.4179" y2="3.57646" gradientUnits="userSpaceOnUse">
<stop offset="0.26" stop-color="#96CEDF"/>
<stop offset="1" stop-color="#D8F3FC"/>
</linearGradient>
</defs>
</svg>

<svg xmlns="http://www.w3.org/2000/svg" width="24" height="24" fill="none" viewBox="0 0 24 24">
    <path fill="url(#SLG__a)" d="m2.588 17.806 2.942-5.47 6.529 2.87 6.412-2.87 2.94 5.47L12.06 22z"/>
    <path fill="url(#SLG__b)" fill-rule="evenodd" d="M11.989 15.594C9.866 14.517 5.6 12.359 5.53 12.335l6.459-3.212 6.482 3.212zm0-1.018c-1.453-.735-4.376-2.218-4.43-2.235l4.43-2.2 4.453 2.206-4.453 2.235zm-2.047-1.694 2.059.882 2.059-.888L12 12l-2.058.876z" clip-rule="evenodd"/>
    <path fill="url(#SLG__c)" d="m12 11.412-4.706-2.07L12 2z"/>
    <path fill="url(#SLG__d)" d="m12 11.412 4.706-2.07L12 2z"/>
    <defs>
        <linearGradient id="SLG__a" x1="11.812" x2="11.812" y1="21.206" y2="13.906" gradientUnits="userSpaceOnUse">
            <stop offset=".59" stop-color="#A9CFD8"/>
            <stop offset="1" stop-color="#CFE6EE"/>
        </linearGradient>
        <linearGradient id="SLG__b" x1="12.001" x2="12.001" y1="9.123" y2="15.594" gradientUnits="userSpaceOnUse">
            <stop offset=".57" stop-color="#D7FDFF"/>
            <stop offset="1" stop-color="#DAFBFF"/>
        </linearGradient>
        <linearGradient id="SLG__c" x1="8.217" x2="11.582" y1="9.77" y2="3.576" gradientUnits="userSpaceOnUse">
            <stop offset=".46" stop-color="#70B8C7"/>
            <stop offset="1" stop-color="#D8F3FC"/>
        </linearGradient>
        <linearGradient id="SLG__d" x1="15.783" x2="12.418" y1="9.77" y2="3.576" gradientUnits="userSpaceOnUse">
            <stop offset=".26" stop-color="#96CEDF"/>
            <stop offset="1" stop-color="#D8F3FC"/>
        </linearGradient>
    </defs>
</svg>
